icons/ticket-chevron-up.svg

<svg xmlns="http://www.w3.org/2000/svg" width="24" height="24" viewBox="0 0 24 24">
  <path d="M20,4 C21.5976809,4 22.9036609,5.24891996 22.9949073,6.82372721 L23,7 L23,10 L22,10 C20.8954305,10 20,10.8954305 20,12 C20,13.0543618 20.8158778,13.9181651 21.8507377,13.9945143 L22,14 L23,14 L23,17 C23,18.5976809 21.75108,19.9036609 20.1762728,19.9949073 L20,20 L4,20 C2.40231912,20 1.09633912,18.75108 1.00509269,17.1762728 L1,17 L1,14 L2,14 C3.1045695,14 4,13.1045695 4,12 C4,10.9456382 3.18412221,10.0818349 2.14926234,10.0054857 L2,10 L1,10 L1,7 C1,5.40231912 2.24891996,4.09633912 3.82372721,4.00509269 L4,4 L20,4 Z M12.6128994,9.70970461 C12.2206082,9.40467972 11.6533772,9.43240926 11.2928932,9.79289322 L11.2928932,9.79289322 L8.29289322,12.7928932 L8.20970461,12.8871006 C7.90467972,13.2793918 7.93240926,13.8466228 8.29289322,14.2071068 L8.29289322,14.2071068 L8.38710056,14.2902954 C8.77939176,14.5953203 9.34662282,14.5675907 9.70710678,14.2071068 L9.70710678,14.2071068 L12,11.915 L14.2928932,14.2071068 L14.3871006,14.2902954 C14.7793918,14.5953203 15.3466228,14.5675907 15.7071068,14.2071068 C16.0976311,13.8165825 16.0976311,13.1834175 15.7071068,12.7928932 L15.7071068,12.7928932 L12.7071068,9.79289322 Z"/>
</svg>

<svg xmlns="http://www.w3.org/2000/svg" viewBox="0 0 24 24">
  <path d="M20 4a3 3 0 0 1 3 2.82V10h-1a2 2 0 0 0-.15 4H23v3a3 3 0 0 1-2.82 3H4a3 3 0 0 1-3-2.82V14h1a2 2 0 0 0 .15-4H1V7a3 3 0 0 1 2.82-3H20zm-7.39 5.71a1 1 0 0 0-1.32.08l-3 3-.08.1a1 1 0 0 0 .08 1.32l.1.08a1 1 0 0 0 1.32-.08L12 11.9l2.3 2.3.09.08a1 1 0 0 0 1.32-1.5l-3-3z"/>
</svg>
